docs/_includes/icons/copy.svg

<svg viewBox="0 0 12 19" xmlns="http://www.w3.org/2000/svg"><path d="m11.415 5.068v9.16a.463.463 0 0 1 -.462.461h-1.476v1.477a.463.463 0 0 1 -.462.462h-7.968a.463.463 0 0 1 -.462-.462v-11.19a.463.463 0 0 1 .462-.462h1.476v-1.477a.463.463 0 0 1 .462-.462h5.937zm-3.046 2.806h-1.741a.529.529 0 0 1 -.527-.527v-1.725h-4.408v9.897h6.677zm-4.737-4.19v.83h3.352l1.095 1.095a.518.518 0 0 1 -.04-.2v-1.725zm5.845 3.323v6.574h.83v-7.645h-1.74a.517.517 0 0 1 -.2-.04z"/></svg>

<svg xmlns="http://www.w3.org/2000/svg" viewBox="0 0 12 19" class="cf-icon-svg cf-icon-svg__copy"><path d="M11.415 5.068v9.16a.463.463 0 0 1-.462.461H9.477v1.477a.463.463 0 0 1-.462.462H1.047a.463.463 0 0 1-.462-.462V4.976a.463.463 0 0 1 .462-.462h1.476V3.037a.463.463 0 0 1 .462-.462h5.937zM8.369 7.874H6.628a.53.53 0 0 1-.527-.527V5.622H1.693v9.897H8.37zm-4.737-4.19v.83h3.352l1.095 1.095a.5.5 0 0 1-.04-.2V3.684zm5.845 3.323v6.574h.83V5.936h-1.74a.5.5 0 0 1-.2-.04z"/></svg>
